X:1
T:Traveling Home
T:Robert Harkness, 1910
T:Traveling Home
T:Public Domain
T:Public Domain
C:Robert Harkness, 1910
Z:Public Domain
%%score 1 ( 2 3 )
L:1/8
M:4/4
K:Bb
V:1 treble 
V:2 bass 
V:3 bass 
V:1
 [DB]2 [DF]2 [DF]2 [FB]2 | [EB]2 [EG]2 [EG]4 | [EA]2 [EA]2 [EA][DB][Ec][EA] | [DB]2 [EG]2 [DF]4 | %4
w: 1.~Thro’ a land of|sin and shame,|Led by Je- sus we are|trav- ’ling home;|
w: 2.~To a land of|peace and rest,|Led by Je- sus we are|trav- ’ling home;|
w: 3.~Joy un- ceas- ing|we shall share,|Led by Je- sus we are|trav- ’ling home;|
w: 4.~Sor- rows will for-|got- ten be,|Led by Je- sus we are|trav- ’ling home;|
 [DB]2 [DF]2 [DF]2 [FB]2 | [EB]2 [EG]2 [=EG]4 | [EA]2 [EA]2 [EA][DB][Fd][Ec] | [DB]2 [EB]2 [DB]4 || %8
w: Trust- ing in the|Sav- ior’s name,|Led by Je- sus we are|trav- ’ling home.|
w: Where no soul can|be dis- tressed,|Led by Je- sus we are|trav- ’ling home.|
w: With the loved ones|wait- ing there,|Led by Je- sus we are|trav- ’ling home.|
w: O- ver for e-|ter- ni- ty,|Led by Je- sus we are|trav- ’ling home.|
"^Refrain" [DB]2 [DF]2 [DF]4 | [EB]2 [EG]2 [EG]4 | [EA]2 [EA]2 [EA][DB][Ec][EA] | %11
w: |||
w: |||
w: |||
w: |||
 [DB]2 [EG]2 [DF]4 | [DB]2 [DF]2 [DF]4 | [EB]2 [EG]2 [=EG]4 | [EA]2 [EA]2 [EA][DB][Fd][Ec] | %15
w: ||||
w: ||||
w: ||||
w: ||||
 [DB]2 [EB]2 [DB]4 |] %16
w: |
w: |
w: |
w: |
V:2
 [B,,F,]2 [B,,B,]2 [B,,B,]2 [D,B,]2 | [E,G,]2 [E,B,]2 [C,C]4 | %2
w: ~ ~ ~ ~|~ ~ ~|
 [F,C]2 [F,C]2 [F,C][F,B,][F,A,][F,C] | [B,,B,]2 [B,,B,]2 [B,,B,]4 | %4
w: ~ ~ ~ ~ ~ ~|~ ~ ~|
 [B,,F,]2 [B,,B,]2 [B,,B,]2 [D,B,]2 | [E,G,]2 [E,B,]2 [C,B,]4 | %6
w: ~ ~ ~ ~|~ ~ ~|
 [F,C]2 [F,C]2 [F,C][F,B,][F,G,][F,A,] | (B,A,) [B,,G,]2 [B,,F,]4 || [B,,F,]2 [B,,B,]2 [B,,B,]4 | %9
w: ~ ~ ~ ~ ~ ~|~ * ~ ~|’ling home, trav-|
 [E,G,]2 [E,B,]2 [C,C]4 | [F,C]2 [F,C]2 [F,C][F,B,][F,A,][F,B,] | [B,,B,]2 [B,,B,]2 [B,,B,]4 | %12
w: ’ling home, Led|by Je- sus we are trav-|’ling home; Trav-|
 [B,,F,]2 [B,,B,]2 [B,,B,]4 | [E,G,]2 [E,B,]2 [C,B,]4 | [F,C]2 [F,C]2 [F,C][F,B,][F,G,][F,A,] | %15
w: ’ling home, trav-|’ling home, Led|by Je- sus we are trav-|
 (B,A,) [B,,G,]2 [B,,F,]4 |] %16
w: ’ling * home; *|
V:3
 x8 | x8 | x8 | x8 | x8 | x8 | x8 | B,,2 x6 || x8 | x8 | x8 | x8 | x8 | x8 | x8 | B,,2 x6 |] %16
w: |||||||Trav-|||||||||

